<?xml version="1.0" encoding="UTF-8"?>
<map version="1.10" tiledversion="1.11.2" orientation="orthogonal" renderorder="right-down" width="20" height="10" tilewidth="16" tileheight="16" infinite="0" nextlayerid="8" nextobjectid="8">
 <properties>
  <property name="name" value="IndoorTest2"/>
 </properties>
 <tileset firstgid="1" source="OutdoorsTilemap.tsx"/>
 <tileset firstgid="1025" source="IndoorTileset.tsx"/>
 <layer id="4" name="Terrain" width="20" height="10">
  <data encoding="csv">
1053,1053,1053,1053,1053,1053,1053,1053,1053,1053,1053,1053,1053,1053,1053,1053,1053,1053,1053,1053,
1053,1053,1162,1130,1130,1130,1161,1162,1161,1161,1161,1161,1161,1130,1161,1129,1161,1129,1053,1053,
1053,1053,1162,1129,1130,1162,1129,1130,1130,1129,1129,1129,1162,1162,1161,1130,1130,1130,1053,1053,
1053,1053,1162,1129,1162,1162,1161,1129,1161,1162,1162,1130,1162,1162,1129,1161,1161,1130,1053,1053,
1053,1053,1130,1130,1130,1161,1162,1130,1161,1129,1162,1161,1161,1130,1130,1129,1161,1130,1053,1053,
1162,1162,1129,1130,1130,1162,1162,1162,1161,1130,1130,1162,1161,1129,1129,1130,1129,1129,1130,1161,
1162,1161,1130,1130,1161,1130,1161,1130,1130,1130,1130,1162,1161,1161,1161,1161,1129,1162,1130,1161,
1162,1130,1162,1161,1162,1130,1129,1161,1129,1129,1161,1129,1129,1161,1130,1129,1130,1129,1129,1161,
1162,1161,1162,1162,1129,1162,1130,1161,1129,1162,1130,1161,1161,1129,1130,1162,1161,1129,1162,1161,
1053,1053,1053,1053,1053,1053,1053,1053,1053,1130,1130,1053,1053,1053,1053,1053,1053,1053,1053,1053
</data>
 </layer>
 <layer id="7" name="Walls" width="20" height="10">
  <data encoding="csv">
0,0,0,0,0,0,0,0,0,0,0,0,0,0,0,0,0,0,0,0,
0,0,1039,1040,1041,1040,1039,1041,1039,1041,1039,1040,1039,1039,1041,1040,1039,1039,0,0,
0,0,1071,1072,1073,1072,1071,1073,1071,1073,1071,1072,1071,1071,1073,1072,1071,1071,0,0,
0,0,1103,1104,1105,1104,1103,1105,1103,1105,1103,1104,1103,1103,1105,1104,1103,1103,0,0,
0,0,0,0,0,0,0,0,0,0,0,0,0,0,0,0,0,0,0,0,
1039,1039,1042,0,0,0,0,0,0,0,0,0,0,0,0,0,0,1038,1039,1039,
1071,1071,1074,0,0,0,0,0,0,0,0,0,0,0,0,0,0,1070,1071,1071,
1103,1103,1106,0,0,0,0,0,0,0,0,0,0,0,0,0,0,1102,1103,1103,
0,0,0,0,0,0,0,0,0,0,0,0,0,0,0,0,0,0,0,0,
0,0,0,0,0,0,0,0,0,0,0,0,0,0,0,0,0,0,0,0
</data>
 </layer>
 <layer id="6" name="Ceiling" width="20" height="10">
  <data encoding="csv">
0,0,0,0,0,0,0,0,0,0,0,0,0,0,0,0,0,0,0,0,
0,0,1054,1055,1055,1055,1055,1055,1055,1055,1055,1055,1055,1055,1055,1055,1055,1056,0,0,
0,0,1086,0,0,0,0,0,0,0,0,0,0,0,0,0,0,1088,0,0,
0,0,1086,0,0,0,0,0,0,0,0,0,0,0,0,0,0,1088,0,0,
0,0,1086,0,0,0,0,0,0,0,0,0,0,0,0,0,0,1088,0,0,
1054,1055,1117,0,0,0,0,0,0,0,0,0,0,0,0,0,0,1116,1055,1056,
1086,0,0,0,0,0,0,0,0,0,0,0,0,0,0,0,0,0,0,1088,
1086,0,0,0,0,0,0,0,0,0,0,0,0,0,0,0,0,0,0,1088,
1118,1119,1119,1119,1119,1119,1119,1119,1119,1085,1084,1119,1119,1119,1119,1119,1119,1119,1119,1120,
0,0,0,0,0,0,0,0,0,1086,1088,0,0,0,0,0,0,0,0,0
</data>
 </layer>
 <objectgroup id="5" name="Entities">
  <object id="7" name="HouseTeleporter" type="LocationLink" x="150.182" y="136.5" width="19.4545" height="23">
   <properties>
    <property name="LinkType" propertytype="LocationLinkType" value="Open"/>
    <property name="TargetLocation" value="SampleScene"/>
   </properties>
  </object>
 </objectgroup>
 <layer id="3" name="GroundDecorations" width="20" height="10">
  <data encoding="csv">
0,0,0,0,0,0,0,0,0,0,0,0,0,0,0,0,0,0,0,0,
0,0,0,0,0,0,0,0,0,0,0,0,0,0,0,0,0,0,0,0,
0,0,0,0,0,0,0,0,0,0,0,0,0,0,0,0,0,0,0,0,
0,0,0,0,0,0,0,0,0,0,0,0,0,0,0,0,0,0,0,0,
0,0,0,0,0,0,0,0,0,0,0,0,0,0,0,1172,1173,0,0,0,
0,0,0,0,0,0,0,0,0,0,0,0,0,0,0,1204,1205,0,0,0,
0,0,0,0,0,0,0,0,0,0,0,0,0,0,0,1236,1237,0,0,0,
0,0,0,0,0,0,0,0,0,0,0,0,0,0,0,1268,1269,0,0,0,
0,0,0,0,0,0,0,0,0,0,0,0,0,0,0,0,0,0,0,0,
0,0,0,0,0,0,0,0,0,0,0,0,0,0,0,0,0,0,0,0
</data>
 </layer>
</map>
