<?xml version="1.0" encoding="UTF-8"?>
<map version="1.10" tiledversion="1.11.2" orientation="orthogonal" renderorder="right-down" width="65" height="35" tilewidth="16" tileheight="16" infinite="0" nextlayerid="6" nextobjectid="4">
 <tileset firstgid="1" source="OutdoorsTilemap.tsx"/>
 <tileset firstgid="1025" source=":/automap-tiles.tsx"/>
 <layer id="1" name="Terrain" width="65" height="35">
  <properties>
   <property name="name" value="My Small Map"/>
  </properties>
  <data encoding="csv">
273,273,370,339,371,273,370,339,339,339,340,314,17,311,338,371,273,370,371,402,275,275,276,314,17,17,17,17,17,17,50,338,339,339,339,340,346,17,17,17,17,50,338,371,307,370,339,371,402,275,403,402,276,338,371,273,305,402,276,145,338,371,273,402,276,
307,307,402,275,403,370,340,114,312,312,83,84,17,82,115,338,371,402,403,273,305,370,340,314,17,17,17,17,17,17,82,83,83,83,83,313,345,17,17,17,17,82,115,338,371,402,276,338,339,371,307,307,402,276,338,371,273,273,402,275,276,338,371,273,402,
305,307,305,370,339,340,114,84,17,17,17,17,17,17,344,115,338,339,339,339,339,340,114,345,17,17,17,17,17,17,17,17,17,279,280,280,281,281,281,280,282,17,82,115,338,371,402,276,51,338,371,307,273,308,145,338,371,305,370,371,402,276,306,307,305,
273,273,370,340,114,312,345,17,17,17,17,17,17,17,17,82,83,312,83,83,313,312,345,17,17,81,17,17,49,17,49,279,281,147,51,113,145,51,177,51,146,20,17,344,115,338,371,402,276,113,338,339,371,402,275,276,338,371,402,372,371,308,338,371,305,
273,370,340,114,345,17,17,17,17,17,17,17,17,17,17,17,17,17,17,17,17,17,17,17,17,81,49,17,81,49,18,147,51,51,51,113,113,274,276,113,113,146,282,17,82,115,338,371,402,276,145,113,338,371,307,402,276,338,371,402,403,402,275,403,273,
370,340,114,345,17,17,17,17,17,17,17,17,17,17,17,17,17,17,17,17,17,17,17,17,17,81,49,17,81,279,147,145,113,145,113,145,51,338,340,51,51,113,146,20,17,82,115,338,371,402,275,276,113,338,371,305,402,276,338,371,307,370,371,273,305,
340,114,84,17,17,17,17,17,17,17,17,17,81,49,17,81,17,17,17,81,17,81,49,81,17,49,49,49,279,147,51,113,274,276,113,51,113,113,51,113,113,274,276,146,20,17,82,115,338,371,273,402,276,145,306,273,307,402,276,338,371,402,372,371,307,
83,84,17,17,17,17,17,17,81,49,49,49,17,81,17,81,49,81,81,49,17,18,20,81,81,81,81,18,147,51,113,51,338,340,145,51,145,113,51,51,51,306,308,178,146,282,17,82,115,338,371,305,402,275,372,371,307,307,402,275,372,371,402,372,371,
17,17,17,17,17,17,17,17,81,81,81,49,49,81,17,49,49,49,81,81,18,147,146,20,49,18,280,147,113,51,113,51,145,51,274,275,275,275,276,145,145,306,402,276,145,146,20,17,82,115,338,371,307,273,402,372,371,307,305,305,402,372,371,308,338,
17,17,17,17,17,17,17,17,49,17,81,81,49,17,49,81,81,81,49,17,50,51,114,84,18,147,51,51,113,113,113,51,145,274,403,305,273,307,402,276,274,372,371,308,113,113,146,282,17,344,115,338,339,371,305,402,403,273,307,307,305,402,403,402,276,
17,17,17,17,17,17,17,17,49,81,81,81,81,17,17,17,81,81,49,81,50,114,84,17,311,145,274,276,113,145,113,274,275,403,305,273,307,273,273,308,338,340,306,402,276,145,51,146,20,17,344,312,115,338,371,307,305,273,273,273,307,273,370,371,402,
17,17,17,17,17,17,17,17,49,49,81,49,49,49,17,81,81,17,17,81,82,84,17,49,311,113,338,340,51,145,274,403,307,307,307,305,305,305,307,308,51,51,338,371,402,276,145,51,146,282,17,17,344,115,338,339,371,305,305,273,273,305,308,338,371,
17,17,17,17,17,17,17,17,49,81,49,49,81,81,17,17,17,17,17,17,17,17,17,17,311,113,145,145,274,275,403,273,305,273,273,273,273,273,370,340,51,145,51,338,371,402,276,145,145,146,282,17,17,82,312,115,338,371,273,370,371,273,402,275,403,
17,81,17,17,17,17,17,17,81,49,81,49,49,49,49,81,17,17,17,17,17,17,17,17,311,113,113,145,338,371,305,307,273,305,305,305,307,307,308,145,145,51,274,275,403,273,402,275,276,145,146,280,282,17,17,344,115,338,371,402,372,371,273,273,370,
17,17,81,17,17,17,17,17,17,81,17,81,17,17,81,49,17,17,17,17,17,17,17,17,344,115,51,274,275,403,273,370,371,305,307,305,273,370,404,275,275,276,338,371,305,370,339,371,402,276,51,51,346,17,17,17,344,115,338,371,402,403,370,371,402,
18,282,17,17,17,17,17,17,17,17,17,17,17,17,17,49,49,17,17,17,17,17,17,279,280,147,113,338,339,339,339,340,306,305,273,305,370,340,306,305,305,308,51,306,273,402,276,338,371,402,276,113,146,20,17,17,17,82,115,338,339,371,402,372,339,
147,314,49,17,17,81,17,17,17,17,17,17,17,81,17,49,49,17,17,17,17,279,19,147,145,145,145,113,51,145,145,145,306,307,307,370,340,145,306,307,273,402,275,403,307,273,308,113,338,339,340,145,113,346,17,17,17,17,344,313,115,338,371,402,275,
209,314,18,20,17,17,17,17,17,17,17,17,17,17,17,49,49,279,280,20,279,147,51,274,276,274,276,51,274,275,275,276,338,339,339,340,274,276,338,371,273,305,307,305,307,305,402,276,113,51,51,113,51,346,17,17,17,17,17,17,344,115,338,339,371,
276,146,147,146,281,282,49,17,17,17,17,17,17,279,20,81,49,311,113,146,147,113,51,338,340,338,340,274,403,307,370,340,113,113,145,113,338,340,51,338,371,307,305,305,307,305,273,308,51,145,51,51,114,345,17,17,17,17,17,17,17,344,83,115,338,
340,274,276,113,145,346,17,17,17,17,17,17,279,147,314,49,49,343,113,51,145,113,51,145,51,51,274,403,273,273,308,210,51,145,145,274,276,51,113,113,338,371,305,305,305,307,305,308,145,145,145,145,314,17,17,17,17,17,17,17,17,17,17,344,313,
276,338,340,145,114,84,17,17,17,17,17,18,147,145,314,17,81,344,115,113,51,51,145,51,51,145,338,371,307,370,340,145,51,51,274,403,402,276,51,274,276,306,305,307,273,273,305,308,113,145,51,114,84,17,17,17,17,17,17,17,17,17,17,17,17,
404,276,51,113,146,20,17,17,17,279,19,147,274,276,52,17,81,17,343,51,51,274,276,51,145,274,275,403,273,308,145,51,113,274,403,273,273,308,113,338,340,338,371,307,305,307,305,402,276,113,145,346,17,17,17,17,17,17,17,17,17,17,17,17,17,
338,404,276,114,312,345,17,17,279,147,51,145,338,340,146,20,49,81,343,113,113,338,340,113,274,403,305,305,305,308,145,145,274,403,305,273,305,402,276,113,145,51,338,371,273,305,273,305,308,113,114,345,17,17,17,17,17,17,17,17,17,17,17,17,17,
51,338,340,146,281,20,17,18,147,145,113,274,275,276,51,52,17,49,82,115,145,113,145,113,306,307,273,307,370,340,177,113,306,305,305,305,305,273,308,51,51,51,113,306,273,273,273,307,308,113,52,17,17,17,17,17,17,17,17,17,17,17,17,17,17,
276,51,113,113,51,314,17,311,113,51,274,403,307,308,145,52,81,49,17,343,145,51,145,274,403,307,307,307,308,51,51,274,403,305,305,273,307,273,402,276,145,145,145,338,339,339,339,339,340,177,346,17,17,17,17,17,17,17,17,17,17,17,17,17,17,
402,276,51,113,113,52,17,311,145,274,403,273,273,308,113,146,282,17,81,311,51,113,113,306,305,273,370,339,340,51,145,306,307,307,307,305,307,273,273,308,145,145,145,145,113,51,113,113,113,114,84,17,17,17,17,17,17,17,17,17,17,17,17,17,17,
273,308,113,114,313,84,17,50,145,338,339,339,339,340,274,276,314,49,81,82,115,113,274,403,307,370,340,51,51,145,113,306,305,305,307,307,305,273,307,308,113,51,113,113,145,178,51,51,145,346,17,17,17,17,17,17,17,17,17,17,17,17,17,17,17,
307,308,209,146,281,19,281,147,113,274,276,113,113,51,338,340,346,81,49,81,343,113,306,305,305,308,145,274,276,145,274,403,273,307,273,370,339,371,305,402,276,145,51,113,51,145,145,51,114,345,17,17,17,17,17,17,17,17,17,17,17,17,17,17,17,
273,402,276,113,51,51,51,51,145,338,340,145,51,113,51,113,52,17,49,81,50,274,403,305,370,340,145,338,340,145,306,273,307,273,370,340,113,306,273,273,308,113,145,113,145,145,113,113,346,17,17,17,17,17,17,17,17,17,17,17,17,17,17,17,17,
273,307,308,51,51,113,274,276,51,51,113,113,274,276,51,51,146,20,81,49,50,306,273,305,308,51,113,51,113,113,306,273,273,273,308,145,274,403,307,307,402,276,51,51,113,145,113,51,314,17,17,17,17,17,17,17,17,17,17,17,17,17,17,17,17,
273,273,402,275,275,276,338,340,177,51,113,113,338,340,51,113,51,346,17,17,50,338,339,339,340,113,51,145,145,51,338,339,371,273,402,275,403,305,273,307,273,308,113,51,145,145,113,114,84,17,17,17,17,17,17,17,17,17,17,17,17,17,17,17,17,
305,273,273,307,273,308,113,274,275,275,276,51,145,145,145,145,145,346,17,49,344,115,113,145,113,51,145,113,51,274,275,275,403,307,273,307,273,305,273,305,305,402,276,51,113,145,145,52,17,17,17,17,17,17,17,17,17,17,17,17,17,17,17,17,17,
305,273,307,273,307,402,275,403,273,307,308,274,275,275,275,275,276,346,17,17,81,344,115,113,274,276,145,145,274,403,273,305,305,307,305,273,273,273,307,305,273,307,308,145,145,113,114,345,17,17,17,17,17,17,17,81,49,49,81,49,49,17,81,81,49,
307,307,305,273,307,305,307,273,273,273,402,403,273,305,307,305,308,346,81,49,81,81,343,145,338,340,51,51,306,273,305,307,307,307,307,307,273,307,273,305,305,273,308,145,113,113,52,17,17,17,17,17,17,17,17,81,81,49,81,17,17,49,49,49,49,
305,305,305,305,305,307,307,273,305,273,273,305,307,305,305,273,308,146,282,49,17,81,311,113,113,51,145,113,306,307,307,273,273,273,305,273,307,273,273,307,305,273,402,276,145,51,346,17,17,17,17,17,17,17,17,81,49,81,49,49,17,81,17,81,81
</data>
 </layer>
 <layer id="2" name="FarmLand" width="65" height="35">
  <data encoding="csv">
0,0,0,0,0,0,0,0,0,0,0,0,0,0,0,0,0,0,0,0,0,0,0,0,0,0,0,0,0,0,0,0,0,0,0,0,0,0,0,0,0,0,0,0,0,0,0,0,0,0,0,0,0,0,0,0,0,0,0,0,0,0,0,0,0,
0,0,0,0,0,0,0,0,0,0,0,0,0,0,0,0,0,0,0,0,0,0,0,0,0,0,0,0,0,0,0,0,0,0,0,0,0,0,0,0,0,0,0,0,0,0,0,0,0,0,0,0,0,0,0,0,0,0,0,0,0,0,0,0,0,
0,0,0,0,0,0,0,0,0,0,0,0,0,0,0,0,0,0,0,0,0,0,0,0,0,0,0,0,0,0,0,0,0,0,0,0,0,0,0,0,0,0,0,0,0,0,0,0,0,0,0,0,0,0,0,0,0,0,0,0,0,0,0,0,0,
0,0,0,0,0,0,0,0,0,0,0,0,0,0,0,0,0,0,0,0,0,0,0,0,0,0,0,0,0,0,0,0,0,0,0,0,0,0,0,0,0,0,0,0,0,0,0,0,0,0,0,0,0,0,0,0,0,0,0,0,0,0,0,0,0,
0,0,0,0,0,0,0,0,0,0,0,0,0,0,0,0,0,0,0,0,0,0,0,0,0,0,0,0,0,0,0,0,0,0,0,0,0,0,0,0,0,0,0,0,0,0,0,0,0,0,0,0,0,0,0,0,0,0,0,0,0,0,0,0,0,
0,0,0,0,0,0,0,0,0,0,0,0,0,0,0,0,0,0,0,0,0,0,0,0,0,0,0,0,0,0,0,0,0,0,0,0,0,0,0,0,0,0,0,0,0,0,0,0,0,0,0,0,0,0,0,0,0,0,0,0,0,0,0,0,0,
0,0,0,0,0,0,0,0,0,0,0,0,0,0,0,0,0,0,0,0,0,0,0,0,0,0,0,0,0,0,0,0,0,0,0,0,0,0,0,0,0,0,0,0,0,0,0,0,0,0,0,0,0,0,0,0,0,0,0,0,0,0,0,0,0,
0,0,0,0,0,0,0,0,97,98,98,98,98,99,0,97,98,98,98,98,99,0,0,0,0,0,0,0,0,0,0,0,0,0,0,0,0,0,0,0,0,0,0,0,0,0,0,0,0,0,0,0,0,0,0,0,0,0,0,0,0,0,0,0,0,
0,0,0,0,0,0,0,0,129,130,130,130,130,131,0,129,130,130,130,130,131,0,0,0,0,0,0,0,0,0,0,0,0,0,0,0,0,0,0,0,0,0,0,0,0,0,0,0,0,0,0,0,0,0,0,0,0,0,0,0,0,0,0,0,0,
0,0,0,0,0,0,0,0,129,130,130,130,130,131,0,129,130,130,130,130,131,0,0,0,0,0,0,0,0,0,0,0,0,0,0,0,0,0,0,0,0,0,0,0,0,0,0,0,0,0,0,0,0,0,0,0,0,0,0,0,0,0,0,0,0,
0,0,0,0,0,0,0,0,129,130,130,130,130,131,0,129,130,130,130,130,131,0,0,0,0,0,0,0,0,0,0,0,0,0,0,0,0,0,0,0,0,0,0,0,0,0,0,0,0,0,0,0,0,0,0,0,0,0,0,0,0,0,0,0,0,
0,0,0,0,0,0,0,0,129,130,130,130,130,131,0,129,130,130,130,130,131,0,0,0,0,0,0,0,0,0,0,0,0,0,0,0,0,0,0,0,0,0,0,0,0,0,0,0,0,0,0,0,0,0,0,0,0,0,0,0,0,0,0,0,0,
0,0,0,0,0,0,0,0,129,130,130,130,130,131,0,161,162,162,162,162,163,0,0,0,0,0,0,0,0,0,0,0,0,0,0,0,0,0,0,0,0,0,0,0,0,0,0,0,0,0,0,0,0,0,0,0,0,0,0,0,0,0,0,0,0,
0,0,0,0,0,0,0,0,129,130,130,130,130,131,0,0,0,0,0,0,0,0,0,0,0,0,0,0,0,0,0,0,0,0,0,0,0,0,0,0,0,0,0,0,0,0,0,0,0,0,0,0,0,0,0,0,0,0,0,0,0,0,0,0,0,
0,0,0,0,0,0,0,0,129,130,130,130,130,131,0,0,0,0,0,0,0,0,0,0,0,0,0,0,0,0,0,0,0,0,0,0,0,0,0,0,0,0,0,0,0,0,0,0,0,0,0,0,0,0,0,0,0,0,0,0,0,0,0,0,0,
0,0,0,0,0,0,0,0,161,162,162,162,162,163,0,0,0,0,0,0,0,0,0,0,0,0,0,0,0,0,0,0,0,0,0,0,0,0,0,0,0,0,0,0,0,0,0,0,0,0,0,0,0,0,0,0,0,0,0,0,0,0,0,0,0,
0,0,0,0,0,0,0,0,0,0,0,0,0,0,0,0,0,0,0,0,0,0,0,0,0,0,0,0,0,0,0,0,0,0,0,0,0,0,0,0,0,0,0,0,0,0,0,0,0,0,0,0,0,0,0,0,0,0,0,0,0,0,0,0,0,
0,0,0,0,0,0,0,0,0,0,0,0,0,0,0,0,0,0,0,0,0,0,0,0,0,0,0,0,0,0,0,0,0,0,0,0,0,0,0,0,0,0,0,0,0,0,0,0,0,0,0,0,0,0,0,0,0,0,0,0,0,0,0,0,0,
0,0,0,0,0,0,0,0,0,0,0,0,0,0,0,0,0,0,0,0,0,0,0,0,0,0,0,0,0,0,0,0,0,0,0,0,0,0,0,0,0,0,0,0,0,0,0,0,0,0,0,0,0,0,0,0,0,0,0,0,0,0,0,0,0,
0,0,0,0,0,0,0,0,0,0,0,0,0,0,0,0,0,0,0,0,0,0,0,0,0,0,0,0,0,0,0,0,0,0,0,0,0,0,0,0,0,0,0,0,0,0,0,0,0,0,0,0,0,0,0,0,0,0,0,0,0,0,0,0,0,
0,0,0,0,0,0,0,0,0,0,0,0,0,0,0,0,0,0,0,0,0,0,0,0,0,0,0,0,0,0,0,0,0,0,0,0,0,0,0,0,0,0,0,0,0,0,0,0,0,0,0,0,0,0,0,0,0,0,0,0,0,0,0,0,0,
0,0,0,0,0,0,0,0,0,0,0,0,0,0,0,0,0,0,0,0,0,0,0,0,0,0,0,0,0,0,0,0,0,0,0,0,0,0,0,0,0,0,0,0,0,0,0,0,0,0,0,0,0,0,0,0,0,0,0,0,0,0,0,0,0,
0,0,0,0,0,0,0,0,0,0,0,0,0,0,0,0,0,0,0,0,0,0,0,0,0,0,0,0,0,0,0,0,0,0,0,0,0,0,0,0,0,0,0,0,0,0,0,0,0,0,0,0,0,0,0,0,0,0,0,0,0,0,0,0,0,
0,0,0,0,0,0,0,0,0,0,0,0,0,0,0,0,0,0,0,0,0,0,0,0,0,0,0,0,0,0,0,0,0,0,0,0,0,0,0,0,0,0,0,0,0,0,0,0,0,0,0,0,0,0,0,0,0,0,0,0,0,0,0,0,0,
0,0,0,0,0,0,0,0,0,0,0,0,0,0,0,0,0,0,0,0,0,0,0,0,0,0,0,0,0,0,0,0,0,0,0,0,0,0,0,0,0,0,0,0,0,0,0,0,0,0,0,0,0,0,0,0,0,0,0,0,0,0,0,0,0,
0,0,0,0,0,0,0,0,0,0,0,0,0,0,0,0,0,0,0,0,0,0,0,0,0,0,0,0,0,0,0,0,0,0,0,0,0,0,0,0,0,0,0,0,0,0,0,0,0,0,0,0,0,0,0,0,0,0,0,0,0,0,0,0,0,
0,0,0,0,0,0,0,0,0,0,0,0,0,0,0,0,0,0,0,0,0,0,0,0,0,0,0,0,0,0,0,0,0,0,0,0,0,0,0,0,0,0,0,0,0,0,0,0,0,0,0,0,0,0,0,0,0,0,0,0,0,0,0,0,0,
0,0,0,0,0,0,0,0,0,0,0,0,0,0,0,0,0,0,0,0,0,0,0,0,0,0,0,0,0,0,0,0,0,0,0,0,0,0,0,0,0,0,0,0,0,0,0,0,0,0,0,0,0,0,0,0,0,0,0,0,0,0,0,0,0,
0,0,0,0,0,0,0,0,0,0,0,0,0,0,0,0,0,0,0,0,0,0,0,0,0,0,0,0,0,0,0,0,0,0,0,0,0,0,0,0,0,0,0,0,0,0,0,0,0,0,0,0,0,0,0,0,0,0,0,0,0,0,0,0,0,
0,0,0,0,0,0,0,0,0,0,0,0,0,0,0,0,0,0,0,0,0,0,0,0,0,0,0,0,0,0,0,0,0,0,0,0,0,0,0,0,0,0,0,0,0,0,0,0,0,0,0,0,0,0,0,0,0,0,0,0,0,0,0,0,0,
0,0,0,0,0,0,0,0,0,0,0,0,0,0,0,0,0,0,0,0,0,0,0,0,0,0,0,0,0,0,0,0,0,0,0,0,0,0,0,0,0,0,0,0,0,0,0,0,0,0,0,0,0,0,0,0,0,0,0,0,0,0,0,0,0,
0,0,0,0,0,0,0,0,0,0,0,0,0,0,0,0,0,0,0,0,0,0,0,0,0,0,0,0,0,0,0,0,0,0,0,0,0,0,0,0,0,0,0,0,0,0,0,0,0,0,0,0,0,0,0,0,0,0,0,0,0,0,0,0,0,
0,0,0,0,0,0,0,0,0,0,0,0,0,0,0,0,0,0,0,0,0,0,0,0,0,0,0,0,0,0,0,0,0,0,0,0,0,0,0,0,0,0,0,0,0,0,0,0,0,0,0,0,0,0,0,0,0,0,0,0,0,0,0,0,0,
0,0,0,0,0,0,0,0,0,0,0,0,0,0,0,0,0,0,0,0,0,0,0,0,0,0,0,0,0,0,0,0,0,0,0,0,0,0,0,0,0,0,0,0,0,0,0,0,0,0,0,0,0,0,0,0,0,0,0,0,0,0,0,0,0,
0,0,0,0,0,0,0,0,0,0,0,0,0,0,0,0,0,0,0,0,0,0,0,0,0,0,0,0,0,0,0,0,0,0,0,0,0,0,0,0,0,0,0,0,0,0,0,0,0,0,0,0,0,0,0,0,0,0,0,0,0,0,0,0,0
</data>
 </layer>
 <layer id="3" name="GroundDecorations" width="65" height="35">
  <data encoding="csv">
0,0,0,0,0,150,0,0,0,0,0,0,0,0,0,0,0,0,24,0,0,0,0,0,0,0,0,0,0,0,0,0,0,0,0,0,0,0,0,0,0,0,0,0,0,0,0,0,0,0,0,0,0,0,0,0,0,0,0,0,0,0,0,0,0,
0,0,0,0,0,0,0,0,56,0,0,0,0,0,0,0,0,0,0,0,0,0,0,0,0,0,0,0,0,24,0,56,0,56,0,0,0,0,0,0,0,0,0,0,0,0,151,0,0,0,0,0,0,0,0,0,0,0,0,0,0,0,0,0,0,
0,0,0,0,0,0,0,24,0,0,0,0,0,24,223,224,223,224,223,224,223,224,223,224,223,224,0,0,0,0,0,0,0,0,0,0,56,119,0,0,0,0,0,0,0,0,0,0,0,0,0,0,0,0,0,0,0,0,0,0,0,0,0,0,0,
0,0,118,0,24,0,0,0,0,0,0,118,0,0,255,256,255,256,255,256,255,256,255,256,255,256,57,0,0,0,0,0,0,22,0,0,0,0,0,0,0,0,0,0,0,0,0,0,0,0,0,0,0,0,0,0,0,0,0,0,0,0,0,0,0,
0,0,0,0,0,0,0,0,0,0,0,0,0,0,287,288,287,288,287,288,287,288,287,288,287,288,26,0,23,0,0,0,0,0,55,0,31,32,0,0,0,0,0,0,0,0,0,0,0,0,0,0,0,0,0,0,0,0,119,0,0,0,0,0,0,
0,0,0,0,0,0,0,87,0,0,0,0,0,0,319,320,319,320,319,320,319,320,319,320,319,320,26,0,0,0,0,0,0,0,87,0,63,64,0,0,0,0,0,0,0,0,0,0,0,0,0,0,0,0,0,0,0,0,0,0,0,0,0,0,0,
0,0,0,0,0,0,0,0,0,0,0,0,0,0,26,25,26,57,26,25,57,57,57,25,58,58,25,0,0,0,0,0,0,0,0,0,95,96,0,0,0,0,0,0,0,0,0,0,0,0,0,0,0,0,0,0,0,0,0,0,0,0,0,0,0,
0,0,0,118,0,0,56,0,0,0,0,0,0,0,26,0,0,0,0,0,0,0,0,0,0,0,0,0,0,0,0,0,31,32,0,0,127,128,0,0,0,0,0,0,0,0,0,0,0,0,0,0,0,0,0,0,0,0,0,151,0,0,0,0,0,
0,0,0,0,0,0,0,0,0,0,0,0,0,0,58,0,0,0,0,0,0,0,0,0,0,0,55,0,0,0,119,0,63,64,0,121,159,160,0,0,0,0,0,0,0,0,0,0,0,0,0,0,0,0,0,0,0,0,0,0,0,0,0,0,0,
0,0,0,0,0,0,56,0,0,0,0,0,0,0,26,0,0,0,0,0,22,150,0,0,0,0,0,0,0,0,0,0,95,96,0,0,191,192,0,0,0,0,0,31,32,0,0,0,0,0,0,0,0,0,0,0,0,0,0,0,0,0,0,0,0,
0,0,0,0,0,0,0,31,32,0,0,0,0,0,57,0,0,0,31,32,0,0,0,0,0,0,0,0,118,0,0,0,127,128,0,0,0,0,0,0,0,0,0,63,64,0,0,0,0,0,0,0,0,0,0,0,0,0,0,0,0,0,0,0,0,
0,0,0,0,0,0,24,63,64,0,0,0,0,0,25,0,0,0,63,64,0,0,88,0,0,0,0,0,87,0,0,0,159,160,0,0,0,0,0,0,0,0,0,95,96,0,0,0,0,0,0,0,0,0,0,0,0,0,0,0,0,0,0,0,0,
0,0,0,0,0,118,0,95,96,0,0,0,0,56,26,0,0,23,95,96,0,0,0,0,0,0,0,150,0,0,0,22,191,192,0,0,56,0,0,0,0,0,0,127,128,0,0,0,0,0,0,0,0,0,0,0,0,0,0,0,0,0,0,0,0,
0,0,26,0,0,0,24,127,128,0,0,0,0,0,57,0,0,0,127,128,0,0,0,0,0,0,0,0,120,0,0,0,0,0,0,0,0,0,0,0,0,0,0,159,160,0,0,0,151,0,0,0,0,0,0,0,0,0,0,0,0,0,0,0,0,
0,0,58,0,0,0,0,159,160,0,0,0,0,0,57,24,0,0,159,160,0,0,86,0,0,0,0,0,0,0,0,0,54,0,87,24,0,0,0,0,0,0,0,191,192,0,0,0,0,0,0,0,0,0,0,0,0,0,0,0,0,0,0,0,0,
0,0,26,0,0,0,0,191,192,0,0,0,0,0,57,0,0,0,191,192,0,0,0,0,0,0,0,31,32,0,0,0,0,0,0,0,0,0,0,0,0,0,0,0,0,0,0,0,0,0,0,0,0,0,0,0,0,0,0,0,120,0,0,0,0,
0,0,57,58,57,25,26,25,57,26,25,58,26,57,58,0,0,0,0,0,0,0,0,0,0,0,0,63,64,0,0,0,0,0,0,0,0,0,0,0,0,0,0,0,0,0,0,0,0,0,0,0,0,0,0,0,0,88,0,0,0,0,0,0,0,
0,0,0,0,0,0,0,0,0,0,0,0,0,0,0,0,0,0,0,0,0,0,0,0,0,0,0,95,96,0,0,0,0,0,0,0,0,0,0,0,0,0,0,0,0,0,0,0,0,0,0,0,0,0,31,32,0,0,0,0,0,0,0,0,0,
0,0,56,23,0,0,0,0,0,0,0,0,0,0,0,0,0,0,0,0,0,0,0,0,0,0,0,127,128,0,87,0,0,0,0,0,0,0,0,0,0,0,0,0,0,0,0,0,0,0,0,0,0,0,63,64,0,0,0,0,0,0,0,0,0,
0,0,0,0,0,0,0,0,0,0,0,0,0,0,0,0,0,0,0,0,0,0,0,0,0,0,0,159,160,0,0,0,0,0,0,0,0,0,0,0,0,0,151,0,0,0,0,0,0,0,0,0,0,0,95,96,0,0,0,0,0,0,0,0,0,
0,0,0,0,0,0,0,22,0,0,0,0,0,0,0,0,0,0,0,0,0,87,0,0,0,0,0,191,192,0,0,0,0,0,0,0,0,0,0,0,0,0,0,0,0,0,0,0,0,0,0,0,0,0,127,128,0,0,0,0,0,0,0,0,0,
0,0,0,0,0,0,0,0,0,0,0,0,0,0,0,0,0,0,0,0,0,0,0,31,32,0,0,24,0,0,0,0,0,0,0,0,0,0,0,0,0,0,0,0,0,0,0,0,0,0,0,0,0,0,159,160,0,0,0,31,32,0,0,0,0,
0,0,0,0,0,88,0,0,0,0,0,0,0,0,0,0,0,0,0,0,0,0,0,63,64,0,0,0,0,0,0,0,0,0,0,0,0,31,32,0,0,0,0,0,0,0,0,0,0,0,0,0,0,0,191,192,0,0,0,63,64,0,0,0,0,
0,0,0,0,0,0,0,120,0,0,0,56,0,86,0,0,24,0,0,0,0,0,118,95,96,0,0,0,0,0,0,31,32,118,0,0,0,63,64,0,0,0,0,0,0,0,0,0,0,0,0,0,0,0,0,0,0,0,0,95,96,0,0,0,0,
0,0,24,0,0,0,0,0,0,23,0,0,0,0,56,0,0,0,0,0,0,0,0,127,128,0,0,0,0,0,0,63,64,0,0,0,0,95,96,0,0,0,0,0,0,0,0,0,0,0,0,0,0,0,31,32,0,0,0,127,128,0,0,0,0,
0,0,56,0,0,0,0,0,0,0,0,0,0,0,0,150,0,0,0,0,0,0,0,159,160,0,0,118,0,0,0,95,96,0,0,0,0,127,128,0,0,0,0,0,0,0,0,0,0,0,0,0,0,0,63,64,0,0,0,159,160,0,0,0,0,
32,0,0,0,0,55,0,0,0,0,0,0,0,0,0,0,0,0,0,0,0,0,0,191,192,0,0,0,0,0,0,127,128,0,0,0,0,159,160,0,0,0,0,23,54,0,0,0,0,0,31,32,0,0,95,96,0,0,0,191,192,0,0,0,0,
64,0,0,0,0,0,0,0,0,0,0,0,56,0,0,0,0,0,0,0,0,0,0,0,0,0,0,0,0,0,0,159,160,0,0,0,0,191,192,0,0,0,0,0,0,0,0,0,0,0,63,64,0,0,127,128,0,0,0,0,0,0,0,0,0,
96,0,0,0,0,0,56,0,0,0,0,0,0,0,0,0,0,0,0,0,0,0,118,0,0,0,0,0,0,0,0,191,192,0,0,0,0,0,0,0,0,0,0,0,0,0,0,0,0,0,95,96,0,0,159,160,0,0,0,0,0,0,0,0,0,
128,0,22,0,0,31,32,0,0,0,24,0,0,0,0,0,0,0,0,0,0,0,0,0,0,0,0,0,0,0,0,0,0,0,0,31,32,0,0,0,0,0,0,0,0,0,0,0,0,0,127,128,0,0,191,192,0,0,0,0,0,0,0,0,0,
160,0,0,0,0,63,64,0,0,0,0,0,0,0,31,32,0,0,0,0,0,0,0,0,0,0,0,0,0,0,0,0,0,0,0,63,64,0,0,0,0,0,55,0,0,0,0,0,0,0,159,160,0,0,0,0,0,0,0,0,0,0,0,0,0,
192,0,0,0,0,95,96,56,0,0,0,0,0,118,31,32,0,0,0,0,0,0,0,0,0,0,0,0,0,0,0,0,0,0,0,95,96,0,0,0,0,0,0,54,0,0,0,0,88,0,0,0,0,0,0,0,0,0,0,0,0,0,0,0,0,
0,0,0,55,0,127,128,0,0,0,0,0,0,0,63,64,0,0,0,151,0,0,0,0,0,0,0,0,0,0,0,0,0,0,0,127,128,0,0,0,0,0,0,0,0,0,0,0,0,0,0,0,0,0,0,0,0,0,0,0,0,0,0,0,0,
0,0,0,0,0,159,160,0,0,0,0,0,0,0,95,96,0,0,0,0,0,0,0,0,0,0,0,0,0,0,0,0,0,0,0,159,160,0,0,0,0,0,0,0,0,0,0,0,0,0,0,0,0,0,0,0,0,0,0,0,0,0,0,0,0,
0,24,0,0,0,191,192,0,0,0,0,0,0,0,127,128,0,0,0,0,0,0,0,0,0,0,0,0,0,0,0,0,0,0,0,191,192,0,0,0,0,0,0,0,55,0,0,0,0,0,0,0,0,0,0,0,0,120,0,0,0,0,0,0,0
</data>
 </layer>
 <layer id="4" name="Buildings" width="65" height="35">
  <data encoding="csv">
0,0,0,0,0,0,0,0,0,0,0,0,0,0,0,0,0,0,0,0,0,0,0,0,0,0,0,0,0,0,0,0,0,0,0,0,0,0,0,0,0,0,0,0,0,0,0,0,0,0,0,0,0,0,0,0,0,0,0,0,0,0,0,0,0,
0,0,0,0,0,0,0,0,0,0,0,0,0,0,0,0,0,0,0,0,0,0,0,0,0,0,0,0,0,0,0,0,0,0,0,0,0,0,0,0,0,0,0,0,0,0,0,0,0,0,0,0,0,0,0,0,0,0,0,0,0,0,0,0,0,
0,0,0,0,0,0,0,0,0,0,0,0,0,0,0,0,0,0,0,0,0,0,0,0,0,0,0,0,0,0,0,0,0,0,0,0,0,0,0,0,0,0,0,0,0,0,0,0,0,0,0,0,0,0,0,0,0,0,0,0,0,0,0,0,0,
0,0,0,0,0,0,0,0,0,0,0,0,0,0,0,0,0,0,0,0,0,0,0,0,0,0,0,0,0,0,0,0,0,0,0,0,0,0,0,0,0,0,0,0,0,0,0,0,0,0,0,0,0,0,0,0,0,0,0,0,0,0,0,0,0,
0,763,764,765,766,767,768,0,0,0,0,0,0,0,0,0,0,0,0,0,0,0,0,0,0,0,0,0,0,0,0,0,0,0,0,0,0,0,0,0,0,0,0,0,0,0,0,0,0,0,0,0,0,0,0,0,0,0,0,0,0,0,0,0,0,
0,795,796,797,798,799,800,0,0,0,0,0,0,0,0,0,0,0,0,0,0,0,0,0,0,0,0,0,0,0,0,0,0,0,0,0,0,0,0,0,0,0,0,0,0,0,0,0,0,0,0,0,0,0,0,0,0,0,0,0,0,0,0,0,0,
0,827,828,829,830,831,832,0,0,0,0,0,0,0,0,0,0,0,0,0,0,0,0,0,0,0,0,0,0,0,0,0,0,0,0,0,0,0,0,0,0,0,0,0,0,0,0,0,0,0,0,0,0,0,0,0,0,0,0,0,0,0,0,0,0,
0,859,860,861,862,863,864,0,0,0,0,0,0,0,0,0,0,0,0,0,0,0,0,0,0,0,0,0,0,0,0,0,0,0,0,0,0,0,0,0,0,0,0,0,0,0,0,0,0,0,0,0,0,0,0,0,0,0,0,0,0,0,0,0,0,
0,891,892,893,894,895,896,0,0,0,0,0,0,0,0,0,0,0,0,0,0,0,0,0,0,0,0,0,0,0,0,0,0,0,0,0,0,0,0,0,0,0,0,0,0,0,0,0,0,0,0,0,0,0,0,0,0,0,0,0,0,0,0,0,0,
0,923,924,925,926,927,928,0,0,0,0,0,0,0,0,0,0,0,0,0,0,0,0,0,0,0,0,0,0,0,0,0,0,0,0,0,0,0,0,0,0,0,0,0,0,0,0,0,0,0,0,0,0,0,0,0,0,0,0,0,0,0,0,0,0,
0,955,956,957,958,959,960,0,0,0,0,0,0,0,0,0,0,0,0,0,0,0,0,0,0,0,0,0,0,0,0,0,0,0,0,0,0,0,0,0,0,0,0,0,0,0,0,0,0,0,0,0,0,0,0,0,0,0,0,0,0,0,0,0,0,
0,987,988,989,990,991,992,0,0,0,0,0,0,0,0,0,0,0,0,0,0,0,0,0,0,0,0,0,0,0,0,0,0,0,0,0,0,0,0,0,0,0,0,0,0,0,0,0,0,0,0,0,0,0,0,0,0,0,0,0,0,0,0,0,0,
0,1019,1020,1021,1022,1023,1024,0,0,0,0,0,0,0,0,0,0,0,0,0,0,0,0,0,0,0,0,0,0,0,0,0,0,0,0,0,0,0,0,0,0,0,0,0,0,0,0,0,0,0,0,0,0,0,0,0,0,0,0,0,0,0,0,0,0,
0,0,0,0,0,0,0,0,0,0,0,0,0,0,0,0,0,0,0,0,0,0,0,0,0,0,0,0,0,0,0,0,0,0,0,0,0,0,0,0,0,0,0,0,0,0,0,0,0,0,0,0,0,0,0,0,0,0,0,0,0,0,0,0,0,
0,0,0,0,0,0,0,0,0,0,0,0,0,0,0,0,0,0,0,0,0,0,0,0,0,0,0,0,0,0,0,0,0,0,0,0,0,0,0,0,0,0,0,0,0,0,0,0,0,0,0,0,0,0,0,0,0,0,0,0,0,0,0,0,0,
0,0,0,0,0,0,0,0,0,0,0,0,0,0,0,0,0,0,0,0,0,0,0,0,0,0,0,0,0,0,0,0,0,0,0,0,0,0,0,0,0,0,0,0,0,0,0,0,0,0,0,0,0,0,0,0,0,0,0,0,0,0,0,0,0,
0,0,0,0,0,0,0,0,0,0,0,0,0,0,0,0,0,0,0,0,0,0,0,0,0,0,0,0,0,0,0,0,0,0,0,0,0,0,0,0,0,0,0,0,0,0,0,0,0,0,0,0,0,0,0,0,0,0,0,0,0,0,0,0,0,
0,0,0,0,0,0,0,0,0,0,0,0,0,0,0,0,0,0,0,0,0,0,0,0,0,0,0,0,0,0,0,0,0,0,0,0,0,0,0,0,0,0,0,0,0,0,0,0,0,0,0,0,0,0,0,0,0,0,0,0,0,0,0,0,0,
0,0,0,0,0,0,0,0,0,0,0,0,0,0,0,0,0,0,0,0,0,0,0,0,0,0,0,0,0,0,0,0,0,0,0,0,0,0,0,0,0,0,0,0,0,0,0,0,0,0,0,0,0,0,0,0,0,0,0,0,0,0,0,0,0,
0,0,0,0,0,0,0,0,0,0,0,0,0,0,0,0,0,0,0,0,0,0,0,0,0,0,0,0,0,0,0,0,0,0,0,0,0,0,0,0,0,0,0,0,0,0,0,0,0,0,0,0,0,0,0,0,0,0,0,0,0,0,0,0,0,
0,0,0,0,0,0,0,0,0,0,0,0,0,0,0,0,0,0,0,0,0,0,0,0,0,0,0,0,0,0,0,0,0,0,0,0,0,0,0,0,0,0,0,0,0,0,0,0,0,0,0,0,0,0,0,0,0,0,0,0,0,0,0,0,0,
0,0,0,0,0,0,0,0,0,0,0,0,0,0,0,0,0,0,0,0,0,0,0,0,0,0,0,0,0,0,0,0,0,0,0,0,0,0,0,0,0,0,0,0,0,0,0,0,0,0,0,0,0,0,0,0,0,0,0,0,0,0,0,0,0,
0,0,0,0,0,0,0,0,0,0,0,0,0,0,0,0,0,0,0,0,0,0,0,0,0,0,0,0,0,0,0,0,0,0,0,0,0,0,0,0,0,0,0,0,0,0,0,0,0,0,0,0,0,0,0,0,0,0,0,0,0,0,0,0,0,
0,0,0,0,0,0,0,0,0,0,0,0,0,0,0,0,0,0,0,0,0,0,0,0,0,0,0,0,0,0,0,0,0,0,0,0,0,0,0,0,0,0,0,0,0,0,0,0,0,0,0,0,0,0,0,0,0,0,0,0,0,0,0,0,0,
0,0,0,0,0,0,0,0,0,0,0,0,0,0,0,0,0,0,0,0,0,0,0,0,0,0,0,0,0,0,0,0,0,0,0,0,0,0,0,0,0,0,0,0,0,0,0,0,0,0,0,0,0,0,0,0,0,0,0,0,0,0,0,0,0,
0,0,0,0,0,0,0,0,0,0,0,0,0,0,0,0,0,0,0,0,0,0,0,0,0,0,0,0,0,0,0,0,0,0,0,0,0,0,0,0,0,0,0,0,0,0,0,0,0,0,0,0,0,0,0,0,0,0,0,0,0,0,0,0,0,
0,0,0,0,0,0,0,0,0,0,0,0,0,0,0,0,0,0,0,0,0,0,0,0,0,0,0,0,0,0,0,0,0,0,0,0,0,0,0,0,0,0,0,0,0,0,0,0,0,0,0,0,0,0,0,0,0,0,0,0,0,0,0,0,0,
0,0,0,0,0,0,0,0,0,0,0,0,0,0,0,0,0,0,0,0,0,0,0,0,0,0,0,0,0,0,0,0,0,0,0,0,0,0,0,0,0,0,0,0,0,0,0,0,0,0,0,0,0,0,0,0,0,0,0,0,0,0,0,0,0,
0,0,0,0,0,0,0,0,0,0,0,0,0,0,0,0,0,0,0,0,0,0,0,0,0,0,0,0,0,0,0,0,0,0,0,0,0,0,0,0,0,0,0,0,0,0,0,0,0,0,0,0,0,0,0,0,0,0,0,0,0,0,0,0,0,
0,0,0,0,0,0,0,0,0,0,0,0,0,0,0,0,0,0,0,0,0,0,0,0,0,0,0,0,0,0,0,0,0,0,0,0,0,0,0,0,0,0,0,0,0,0,0,0,0,0,0,0,0,0,0,0,0,0,0,0,0,0,0,0,0,
0,0,0,0,0,0,0,0,0,0,0,0,0,0,0,0,0,0,0,0,0,0,0,0,0,0,0,0,0,0,0,0,0,0,0,0,0,0,0,0,0,0,0,0,0,0,0,0,0,0,0,0,0,0,0,0,0,0,0,0,0,0,0,0,0,
0,0,0,0,0,0,0,0,0,0,0,0,0,0,0,0,0,0,0,0,0,0,0,0,0,0,0,0,0,0,0,0,0,0,0,0,0,0,0,0,0,0,0,0,0,0,0,0,0,0,0,0,0,0,0,0,0,0,0,0,0,0,0,0,0,
0,0,0,0,0,0,0,0,0,0,0,0,0,0,0,0,0,0,0,0,0,0,0,0,0,0,0,0,0,0,0,0,0,0,0,0,0,0,0,0,0,0,0,0,0,0,0,0,0,0,0,0,0,0,0,0,0,0,0,0,0,0,0,0,0,
0,0,0,0,0,0,0,0,0,0,0,0,0,0,0,0,0,0,0,0,0,0,0,0,0,0,0,0,0,0,0,0,0,0,0,0,0,0,0,0,0,0,0,0,0,0,0,0,0,0,0,0,0,0,0,0,0,0,0,0,0,0,0,0,0,
0,0,0,0,0,0,0,0,0,0,0,0,0,0,0,0,0,0,0,0,0,0,0,0,0,0,0,0,0,0,0,0,0,0,0,0,0,0,0,0,0,0,0,0,0,0,0,0,0,0,0,0,0,0,0,0,0,0,0,0,0,0,0,0,0
</data>
 </layer>
 <objectgroup id="5" name="Entities">
  <object id="2" name="HouseTeleporter" type="LocationLink" x="27" y="168" width="32" height="43">
   <properties>
    <property name="Key" value="House1"/>
    <property name="TargetLocation" value="IndoorTest2"/>
   </properties>
  </object>
 </objectgroup>
</map>
